storage/app/icons/phosphoricons/thin/corners-out-thin.svg

<svg xmlns="http://www.w3.org/2000/svg" fill="currentColor" viewBox="0 0 256 256"><path d="M212 48v40a4 4 0 0 1-8 0V52h-36a4 4 0 0 1 0-8h40a4 4 0 0 1 4 4M88 204H52v-36a4 4 0 0 0-8 0v40a4 4 0 0 0 4 4h40a4 4 0 0 0 0-8m120-40a4 4 0 0 0-4 4v36h-36a4 4 0 0 0 0 8h40a4 4 0 0 0 4-4v-40a4 4 0 0 0-4-4M88 44H48a4 4 0 0 0-4 4v40a4 4 0 0 0 8 0V52h36a4 4 0 0 0 0-8"/></svg>

<svg xmlns="http://www.w3.org/2000/svg" viewBox="0 0 256 256" fill="currentColor"><path d="M212,48V88a4,4,0,0,1-8,0V52H168a4,4,0,0,1,0-8h40A4,4,0,0,1,212,48ZM88,204H52V168a4,4,0,0,0-8,0v40a4,4,0,0,0,4,4H88a4,4,0,0,0,0-8Zm120-40a4,4,0,0,0-4,4v36H168a4,4,0,0,0,0,8h40a4,4,0,0,0,4-4V168A4,4,0,0,0,208,164ZM88,44H48a4,4,0,0,0-4,4V88a4,4,0,0,0,8,0V52H88a4,4,0,0,0,0-8Z"/></svg>
